static/img/kroki/88d17a526b46441e5e397b3e6edd1919.svg

<?xml version="1.0" encoding="us-ascii" standalone="no"?><svg xmlns="http://www.w3.org/2000/svg" xmlns:xlink="http://www.w3.org/1999/xlink" contentStyleType="text/css" height="152px" preserveAspectRatio="none" style="width:305px;height:152px;" version="1.1" viewBox="0 0 305 152" width="305px" zoomAndPan="magnify"><defs/><g><!--class aws_dynamo_db_global_table--><g id="elem_aws_dynamo_db_global_table"><rect codeLine="22" fill="#3D176E" height="39.7891" id="aws_dynamo_db_global_table" rx="2.5" ry="2.5" style="stroke:#000D19;stroke-width:0.5;" width="291" x="7" y="7"/><ellipse cx="22" cy="26.8945" fill="#ADD1B2" rx="11" ry="11" style="stroke:#181818;stroke-width:1.0;"/><path d="M24.9688,32.5352 Q24.3906,32.832 23.75,32.9727 Q23.1094,33.1289 22.4063,33.1289 Q19.9063,33.1289 18.5781,31.4883 Q17.2656,29.832 17.2656,26.707 Q17.2656,23.582 18.5781,21.9258 Q19.9063,20.2695 22.4063,20.2695 Q23.1094,20.2695 23.75,20.4258 Q24.4063,20.582 24.9688,20.8789 L24.9688,23.5977 Q24.3438,23.0195 23.75,22.7539 Q23.1563,22.4727 22.5313,22.4727 Q21.1875,22.4727 20.5,23.5508 Q19.8125,24.6133 19.8125,26.707 Q19.8125,28.8008 20.5,29.8789 Q21.1875,30.9414 22.5313,30.9414 Q23.1563,30.9414 23.75,30.6758 Q24.3438,30.3945 24.9688,29.8164 L24.9688,32.5352 Z " fill="#000000"/><text fill="#D9B8FF" font-family="Helvetica" font-size="17" lengthAdjust="spacing" textLength="249" x="41" y="32.7798">aws_dynamo_db_global_table</text></g><!--class aws_kms_key--><g id="elem_aws_kms_key"><rect codeLine="24" fill="#3D176E" height="39.7891" id="aws_kms_key" rx="2.5" ry="2.5" style="stroke:#000D19;stroke-width:0.5;" width="158" x="73.5" y="106.79"/><ellipse cx="88.5" cy="126.6845" fill="#ADD1B2" rx="11" ry="11" style="stroke:#181818;stroke-width:1.0;"/><path d="M91.4688,132.3252 Q90.8906,132.622 90.25,132.7627 Q89.6094,132.9189 88.9063,132.9189 Q86.4063,132.9189 85.0781,131.2783 Q83.7656,129.622 83.7656,126.497 Q83.7656,123.372 85.0781,121.7158 Q86.4063,120.0595 88.9063,120.0595 Q89.6094,120.0595 90.25,120.2158 Q90.9063,120.372 91.4688,120.6689 L91.4688,123.3877 Q90.8438,122.8095 90.25,122.5439 Q89.6563,122.2627 89.0313,122.2627 Q87.6875,122.2627 87,123.3408 Q86.3125,124.4033 86.3125,126.497 Q86.3125,128.5908 87,129.6689 Q87.6875,130.7314 89.0313,130.7314 Q89.6563,130.7314 90.25,130.4658 Q90.8438,130.1845 91.4688,129.6064 L91.4688,132.3252 Z " fill="#000000"/><text fill="#D9B8FF" font-family="Helvetica" font-size="17" lengthAdjust="spacing" textLength="116" x="107.5" y="132.5698">aws_kms_key</text></g><!--link aws_dynamo_db_global_table to aws_kms_key--><g id="link_aws_dynamo_db_global_table_aws_kms_key"><path codeLine="26" d="M152.5,47.22 C152.5,62.49 152.5,83.92 152.5,100.53 " fill="none" id="aws_dynamo_db_global_table-to-aws_kms_key" style="stroke:#1A83AF;stroke-width:2.0;"/><polygon fill="#1A83AF" points="152.5,105.41,156.5,96.41,152.5,100.41,148.5,96.41,152.5,105.41" style="stroke:#1A83AF;stroke-width:2.0;"/></g><!--SRC=[XP1DIyD048Rl_HKBEHSIYxQz235Gz5B4UXC9izdPTib-XDcj9Oh_tNweh8bD3tEPzvcPzvsD4iZGDA5b1Wr7yYDVAzi0WM4vaTiLJZjYYPGW9zEkk70sN0IMO93Tetx3e2he4iyRLTKMlMTNaNG7LRqcjxNYj3uGMB-Nq8Q8AZHuduT0Ycy3HcR4dC-ax9BTfSb4PDCRx66E1D8tagQfoEPTvEAfmTo_n4gz8ylYforTm9xDteaZDUZoG4GcUq5_zBCU7q48PTViEkezdJoHHVhJNsr0kDs1bg1zVCO797IXRR3efSBvJCZfl_33ERWwV8x1pfUYjM1SANYvrew3BWDmZUnZz1b1jTaNjiVkmD3u9SdosIHVl8vluxal]--></g></svg>

<svg xmlns="http://www.w3.org/2000/svg" width="305" height="152" preserveAspectRatio="none" style="width:305px;height:152px"><rect width="291" height="39.789" x="7" y="7" fill="#3D176E" rx="2.5" ry="2.5" style="stroke:#000d19;stroke-width:.5"/><circle cx="22" cy="26.895" r="11" fill="#ADD1B2" style="stroke:#181818;stroke-width:1"/><path d="M24.969 32.535q-.578.297-1.219.438-.64.156-1.344.156-2.5 0-3.828-1.64-1.312-1.657-1.312-4.782t1.312-4.781q1.328-1.656 3.828-1.656.703 0 1.344.156.656.156 1.219.453v2.719q-.625-.578-1.219-.844-.594-.281-1.219-.281-1.343 0-2.031 1.078-.688 1.062-.688 3.156 0 2.094.688 3.172.688 1.062 2.031 1.062.625 0 1.219-.265.594-.281 1.219-.86v2.72Z"/><text x="41" y="32.78" fill="#D9B8FF" font-family="Helvetica" font-size="17" textLength="249">aws_dynamo_db_global_table</text><rect width="158" height="39.789" x="73.5" y="106.79" fill="#3D176E" rx="2.5" ry="2.5" style="stroke:#000d19;stroke-width:.5"/><circle cx="88.5" cy="126.684" r="11" fill="#ADD1B2" style="stroke:#181818;stroke-width:1"/><path d="M91.469 132.325q-.578.297-1.219.438-.64.156-1.344.156-2.5 0-3.828-1.64-1.312-1.657-1.312-4.782t1.312-4.781q1.328-1.656 3.828-1.656.703 0 1.344.156.656.156 1.219.453v2.719q-.625-.579-1.219-.844-.594-.281-1.219-.281-1.344 0-2.031 1.078-.688 1.062-.688 3.156 0 2.094.688 3.172.688 1.062 2.031 1.062.625 0 1.219-.265.594-.281 1.219-.86v2.72Z"/><text x="107.5" y="132.57" fill="#D9B8FF" font-family="Helvetica" font-size="17" textLength="116">aws_kms_key</text><path fill="none" d="M152.5 47.22v53.31" style="stroke:#1a83af;stroke-width:2"/><path fill="#1A83AF" d="m152.5 105.41 4-9-4 4-4-4 4 9z" style="stroke:#1a83af;stroke-width:2"/></svg>
